img/icons/relogio-vermelho.svg

<svg width="20" height="20" viewBox="0 0 20 20" fill="none" xmlns="http://www.w3.org/2000/svg">
<path d="M12.7498 13.9166L13.9165 12.75L10.8332 9.66663V5.83329H9.1665V10.3333L12.7498 13.9166ZM9.99984 18.3333C8.84706 18.3333 7.76373 18.1145 6.74984 17.677C5.73595 17.2395 4.854 16.6458 4.104 15.8958C3.354 15.1458 2.76025 14.2638 2.32275 13.25C1.88525 12.2361 1.6665 11.1527 1.6665 9.99996C1.6665 8.84718 1.88525 7.76385 2.32275 6.74996C2.76025 5.73607 3.354 4.85413 4.104 4.10413C4.854 3.35413 5.73595 2.76038 6.74984 2.32288C7.76373 1.88538 8.84706 1.66663 9.99984 1.66663C11.1526 1.66663 12.2359 1.88538 13.2498 2.32288C14.2637 2.76038 15.1457 3.35413 15.8957 4.10413C16.6457 4.85413 17.2394 5.73607 17.6769 6.74996C18.1144 7.76385 18.3332 8.84718 18.3332 9.99996C18.3332 11.1527 18.1144 12.2361 17.6769 13.25C17.2394 14.2638 16.6457 15.1458 15.8957 15.8958C15.1457 16.6458 14.2637 17.2395 13.2498 17.677C12.2359 18.1145 11.1526 18.3333 9.99984 18.3333ZM9.99984 16.6666C11.8471 16.6666 13.42 16.0173 14.7186 14.7187C16.0172 13.4201 16.6665 11.8472 16.6665 9.99996C16.6665 8.15274 16.0172 6.57982 14.7186 5.28121C13.42 3.9826 11.8471 3.33329 9.99984 3.33329C8.15261 3.33329 6.5797 3.9826 5.28109 5.28121C3.98248 6.57982 3.33317 8.15274 3.33317 9.99996C3.33317 11.8472 3.98248 13.4201 5.28109 14.7187C6.5797 16.0173 8.15261 16.6666 9.99984 16.6666Z" fill="#A60303"/>
</svg>

<svg width="20" height="20" fill="none" xmlns="http://www.w3.org/2000/svg"><path d="m12.75 13.917 1.166-1.167-3.083-3.083V5.833H9.166v4.5l3.584 3.584ZM10 18.333a8.115 8.115 0 0 1-3.25-.656 8.415 8.415 0 0 1-2.646-1.781 8.416 8.416 0 0 1-1.781-2.646A8.115 8.115 0 0 1 1.667 10c0-1.153.218-2.236.656-3.25a8.415 8.415 0 0 1 1.781-2.646A8.415 8.415 0 0 1 6.75 2.323 8.115 8.115 0 0 1 10 1.667c1.153 0 2.236.218 3.25.656a8.416 8.416 0 0 1 2.646 1.781 8.415 8.415 0 0 1 1.78 2.646 8.115 8.115 0 0 1 .657 3.25 8.115 8.115 0 0 1-.656 3.25 8.416 8.416 0 0 1-1.781 2.646 8.416 8.416 0 0 1-2.646 1.781 8.115 8.115 0 0 1-3.25.656Zm0-1.666c1.847 0 3.42-.65 4.719-1.948 1.298-1.299 1.947-2.872 1.947-4.719 0-1.847-.649-3.42-1.947-4.719-1.299-1.298-2.872-1.948-4.72-1.948-1.846 0-3.42.65-4.718 1.948C3.982 6.58 3.333 8.153 3.333 10c0 1.847.65 3.42 1.948 4.719C6.58 16.017 8.153 16.667 10 16.667Z" fill="#C00000"/></svg>
